X:104
T:Nonie Sacking Turf
B:Terry "Cuz" Teahan "Sliabh Luachra on Parade" 1980
Z:Patrick Cavanagh
M:2/4
L:1/8
R:Polka
K:D
A | Bc/B/ AF | de fe | dB AF | A2FE | 
Bc/B/ AF | de fe | dB c/B/A | B2 B :| 
e | fb ba | fe fe | de fg | ab/a/ fe | 
fb ba | fe fe | dB c/B/A | B2 B :|| 

